src/assets/images/twitter.svg

<?xml version="1.0" encoding="UTF-8"?>
<svg width="40px" height="40px" viewBox="0 0 40 40" version="1.1" xmlns="http://www.w3.org/2000/svg" xmlns:xlink="http://www.w3.org/1999/xlink">
    <!-- Generator: Sketch 63.1 (92452) - https://sketch.com -->
    <title>Group 6</title>
    <desc>Created with Sketch.</desc>
    <g id="Page-1" stroke="none" stroke-width="1" fill="none" fill-rule="evenodd">
        <g id="Home" transform="translate(-665.000000, -644.000000)">
            <g id="Group-6" transform="translate(665.000000, 644.000000)">
                <circle id="Oval" fill="#32C5FF" cx="20" cy="20" r="20"></circle>
                <path d="M23.3633904,12.0035516 L23.3633904,12 L24.3011722,12 L24.6438233,12.0674806 C24.8722633,12.1112897 25.0796573,12.1687014 25.2660054,12.2397336 C25.4523715,12.3107658 25.6327142,12.3936426 25.8070334,12.4883463 C25.9813706,12.5830499 26.139477,12.6795472 26.2813526,12.7778024 C26.4220198,12.8748857 26.5482597,12.9778824 26.6600721,13.0867925 C26.7706583,13.1968923 26.9431921,13.2253052 27.1776375,13.1720311 C27.412083,13.1187569 27.6645627,13.0447592 27.9350766,12.9500555 C28.2055906,12.8553518 28.4731109,12.7488036 28.7376014,12.6304107 C29.00211,12.5120178 29.1632281,12.4368479 29.2209378,12.4048835 C29.2774391,12.3717469 29.3075023,12.3539889 29.3111091,12.3516093 L29.3146979,12.3462819 L29.3327322,12.3374029 L29.3507665,12.3285239 L29.3688007,12.3196448 L29.386835,12.3107658 L29.3904418,12.3054384 L29.3958521,12.3018868 L29.4012804,12.2983352 L29.4048693,12.2930078 L29.4229035,12.2876804 L29.4409378,12.2841287 L29.437349,12.3107658 L29.4319206,12.3374029 L29.4229035,12.36404 L29.4138864,12.390677 L29.4048693,12.4084351 L29.3958521,12.4261931 L29.386835,12.4528302 C29.3808296,12.4705882 29.3748242,12.4942597 29.3688007,12.5238624 C29.3627953,12.553465 29.3056808,12.6718402 29.1974752,12.8790233 C29.0892696,13.0862064 28.9540126,13.2963374 28.7917042,13.509434 C28.6293959,13.7225305 28.4839315,13.883525 28.3552931,13.9924528 C28.2254463,14.1025527 28.139477,14.1794983 28.097385,14.2233074 C28.0553111,14.2682886 28.00422,14.3097181 27.9440938,14.3476138 L27.8539225,14.4062153 L27.8358882,14.4150943 L27.8178539,14.4239734 L27.8142651,14.4293008 L27.8088368,14.4328524 L27.8034265,14.436404 L27.7998197,14.4417314 L27.7817854,14.4506104 L27.7637511,14.4594895 L27.7601623,14.4648169 L27.754734,14.4683685 L27.7493237,14.4719201 L27.7457169,14.4772475 L27.742128,14.4825749 L27.7366997,14.4861265 L27.7312894,14.4896781 L27.7276826,14.4950055 L27.8178539,14.4950055 L28.3228133,14.3884573 C28.659459,14.3174251 28.981064,14.2316004 29.2876465,14.1309656 L29.7745717,13.9711432 L29.8286745,13.9533851 L29.8557259,13.9445061 L29.8737601,13.9356271 L29.8917944,13.9267481 L29.9098287,13.917869 L29.9278629,13.90899 L29.9639315,13.9036626 L30,13.900111 L30,13.9356271 L29.9909829,13.9391787 L29.9819657,13.9445061 L29.9783769,13.9498335 L29.9729486,13.9533851 L29.9675383,13.9569367 L29.9639315,13.9622642 L29.9603427,13.9675916 L29.9549143,13.9711432 L29.9495041,13.9746948 L29.9458972,13.9800222 L29.9423084,13.9853496 L29.9368801,13.9889012 L29.9278629,14.0066593 L29.9188458,14.0244173 L29.9134355,14.0279689 C29.911037,14.0315205 29.8346979,14.1321376 29.6844004,14.3298557 C29.5341208,14.5287458 29.4529666,14.6293629 29.4409378,14.6317425 C29.428927,14.6352941 29.412083,14.6530522 29.3904418,14.6850166 C29.370009,14.7181532 29.2425609,14.8501665 29.0081154,15.0810211 C28.77367,15.3118757 28.5440577,15.5172653 28.3192245,15.6972253 C28.0932011,15.8783574 27.978972,16.100919 27.9765735,16.3649279 C27.9729666,16.6277469 27.9591344,16.9249101 27.9350766,17.2563818 C27.911037,17.5878713 27.8659513,17.94598 27.7998197,18.3307436 C27.733706,18.7155072 27.6315059,19.1505794 27.4932372,19.63596 C27.3549865,20.1213407 27.1866546,20.5948946 26.9882777,21.0566038 C26.7899008,21.518313 26.5825068,21.9326615 26.3660956,22.299667 C26.1496844,22.6666726 25.9513075,22.9774384 25.7709648,23.2319645 C25.5906222,23.4864906 25.4072858,23.7262242 25.2209197,23.9511654 C25.0345717,24.1761065 24.798936,24.4294606 24.5139946,24.7112098 C24.2278449,24.9917869 24.07156,25.1456959 24.0451037,25.172919 C24.0174572,25.19897 23.8996393,25.2960533 23.6916141,25.4641509 C23.4848332,25.6334384 23.2623986,25.8027259 23.0243463,25.9720311 C22.7875023,26.1401465 22.5698828,26.2804351 22.3715059,26.3928968 C22.1731289,26.5053585 21.9338864,26.6338024 21.6537421,26.7782464 C21.3748242,26.9238624 21.0730388,27.0588235 20.748422,27.1831299 C20.4238052,27.3074362 20.0811542,27.4228635 19.7204689,27.5294118 C19.3597836,27.63596 19.0111271,27.7188368 18.6744815,27.7780244 C18.3378539,27.837212 17.9561226,27.8875383 17.5293057,27.9289678 L16.8890893,27.991121 L16.8890893,28 L15.716862,28 L15.716862,27.991121 L15.5635708,27.982242 C15.4613886,27.9763285 15.3772227,27.9703973 15.3110911,27.9644839 C15.2449775,27.9585705 14.9954914,27.9260022 14.5626691,27.8668147 C14.1298467,27.8076271 13.7902074,27.7484218 13.5437331,27.6892342 C13.2972768,27.6300466 12.9305681,27.5175671 12.4436429,27.3518313 C11.9567178,27.1860954 11.5401262,27.018566 11.1938683,26.8492786 C10.8488188,26.6811632 10.6324076,26.5746149 10.5446348,26.5296337 C10.4580703,26.4858246 10.3606853,26.4313785 10.2524797,26.3662597 L10.0901713,26.2685905 L10.0865825,26.263263 L10.0811542,26.2597114 L10.0757439,26.2561598 L10.0721371,26.2508324 L10.0541028,26.2419534 L10.0360685,26.2330744 L10.0324797,26.2277469 L10.0270514,26.2241953 L10.0216411,26.2206437 L10.0180343,26.2153163 L10.0144454,26.2099889 L10.0090171,26.2064373 L10,26.2064373 L10,26.1709212 L10.0180343,26.1744728 L10.0360685,26.1798002 L10.1172227,26.1886792 C10.1713255,26.1945927 10.3186114,26.2034717 10.5590622,26.2153163 C10.7995311,26.2271609 11.0550045,26.2271609 11.3255185,26.2153163 C11.5960325,26.2034717 11.8725699,26.1768346 12.1550947,26.1354051 C12.4376375,26.0939756 12.7712714,26.0229434 13.1559964,25.9223085 C13.5407394,25.8216737 13.894211,25.7021088 14.2164292,25.563596 C14.5374391,25.4239112 14.7658611,25.3197248 14.9017313,25.2510544 C15.0363751,25.1835738 15.2419657,25.0580777 15.5184851,24.8745838 L15.9332732,24.5993341 L15.9368801,24.5940067 L15.9422904,24.590455 L15.9477187,24.5869034 L15.9513075,24.581576 L15.9549143,24.5762486 L15.9603246,24.572697 L15.9657529,24.5691454 L15.9693417,24.563818 L15.987376,24.5584906 L16.0054103,24.554939 L16.0090171,24.5371809 L16.0144274,24.5194229 L16.0198557,24.5158713 L16.0234445,24.5105438 L15.8791704,24.5016648 C15.7829937,24.4957514 15.6898106,24.4898202 15.5996393,24.4839068 C15.509468,24.4779933 15.3682056,24.4513563 15.1758341,24.4039956 C14.9834806,24.3566349 14.7760866,24.2856027 14.5536519,24.190899 C14.3312353,24.0961953 14.1148242,23.9837159 13.9044184,23.8534961 C13.6940307,23.7232764 13.5419297,23.6149345 13.4481515,23.5285239 C13.3555816,23.4432675 13.2353472,23.3225305 13.0874662,23.1662597 C12.9407935,23.0088169 12.8133454,22.8472009 12.7051398,22.681465 C12.5969342,22.5157292 12.4935437,22.3245105 12.3949684,22.1078801 L12.245266,21.7846837 L12.2362489,21.7580466 L12.2272317,21.7314095 L12.2218215,21.7136515 L12.2182146,21.6958935 L12.245266,21.6994451 L12.2723174,21.7047725 L12.4706943,21.7314095 C12.6029576,21.7491676 12.8103517,21.755081 13.0928765,21.7491676 C13.3754193,21.7432542 13.5707845,21.7314095 13.6789901,21.7136515 C13.7871957,21.6958935 13.8533273,21.6840488 13.877367,21.6781354 L13.9134355,21.6692564 L13.9585212,21.6603774 L14.0036069,21.6514983 L14.0072137,21.6461709 L14.012624,21.6426193 L14.0180523,21.6390677 L14.0216411,21.6337403 L13.9855726,21.6248613 L13.9495041,21.6159822 L13.9134355,21.6071032 L13.877367,21.5982242 L13.8412985,21.5893452 C13.8172588,21.5834317 13.7751849,21.5715871 13.7150586,21.5538291 C13.6549504,21.536071 13.492642,21.4709523 13.2281335,21.3584906 C12.9636429,21.2460289 12.7532372,21.136515 12.5969342,21.0299667 C12.4402437,20.9231096 12.2908398,20.8062476 12.1496844,20.6801332 C12.0090171,20.5522752 11.8545356,20.3877114 11.6862038,20.1864595 C11.51789,19.9852075 11.3676105,19.7513873 11.2353472,19.4850166 C11.1031019,19.2186459 11.0039134,18.9641199 10.9377818,18.7214206 C10.8719161,18.480149 10.828461,18.233481 10.8079531,17.9844617 L10.7754734,17.6115427 L10.7935077,17.6150943 L10.8115419,17.6204218 L10.8295762,17.6293008 L10.8476105,17.6381798 L10.8656447,17.6470588 L10.883679,17.6559378 L11.1632101,17.7802442 C11.3495762,17.863121 11.5810099,17.9341532 11.8575293,17.9933407 C12.1340667,18.0525283 12.2993688,18.0850966 12.3534716,18.09101 L12.4346258,18.099889 L12.5969342,18.099889 L12.5933454,18.0945616 L12.587917,18.09101 L12.5825068,18.0874584 L12.5788999,18.082131 L12.5753111,18.0768036 L12.5698828,18.0732519 L12.5644725,18.0697003 L12.5608656,18.0643729 L12.5428314,18.0554939 L12.5247971,18.0466149 L12.5212083,18.0412875 L12.51578,18.0377358 L12.5103697,18.0341842 L12.5067628,18.0288568 L12.4887286,18.0199778 L12.4706943,18.0110988 L12.4671055,18.0057714 C12.4634986,18.0033918 12.4117944,17.9655139 12.3119928,17.8921199 C12.2133995,17.8175361 12.110009,17.7210566 12.0018034,17.6026637 C11.8935978,17.4842708 11.7853922,17.3599645 11.6771867,17.2297447 C11.5687818,17.0992266 11.4722281,16.9595854 11.3886384,16.8124306 C11.3044905,16.6644528 11.2155095,16.4761998 11.1217313,16.2477248 C11.0291614,16.0204218 10.9588278,15.791343 10.9107304,15.5604883 C10.862651,15.3296337 10.8355996,15.1017447 10.8295762,14.8768036 C10.8235708,14.6518624 10.8295762,14.4594895 10.8476105,14.299667 C10.8656447,14.1398446 10.9017133,13.9592986 10.9558161,13.7580466 C11.0099188,13.5567947 11.0880794,13.3436981 11.1902615,13.1187569 L11.3435528,12.7813541 L11.3525699,12.754717 L11.361587,12.7280799 L11.3670153,12.7245283 L11.3706041,12.7192009 L11.374211,12.7138735 L11.3796213,12.7103219 L11.3850496,12.7138735 L11.3886384,12.7192009 L11.3922453,12.7245283 L11.3976555,12.7280799 L11.4030839,12.7316315 L11.4066727,12.7369589 L11.4102795,12.7422863 L11.4156898,12.745838 L11.4247069,12.763596 L11.4337241,12.7813541 L11.4391524,12.7849057 L11.4427412,12.7902331 L11.6862038,13.0566038 C11.8485122,13.2341842 12.0408837,13.4324883 12.2633003,13.6514983 C12.4857349,13.8705083 12.608963,13.9841598 12.6330027,13.9924528 C12.6570604,14.0019179 12.6871055,14.029141 12.723174,14.0741398 C12.7592426,14.1179489 12.879477,14.2227214 13.0838593,14.3884573 C13.2882597,14.5541931 13.5557619,14.7465838 13.8863841,14.9655938 C14.2170243,15.1846038 14.5837151,15.4006659 14.9864743,15.6137625 C15.3892516,15.826859 15.8220739,16.019232 16.2849414,16.190899 C16.7478269,16.362566 17.0724436,16.4750277 17.2587917,16.5283019 C17.4451578,16.581576 17.7637511,16.6496426 18.2146078,16.7325194 C18.6654644,16.8153962 19.0051217,16.8686704 19.2335437,16.8923418 C19.4619838,16.9160133 19.6182867,16.9296337 19.7024346,16.9331853 L19.8286745,16.936737 L19.8250857,16.9100999 L19.8196573,16.8834628 L19.7835888,16.6614872 C19.7595491,16.5135094 19.7475203,16.3063263 19.7475203,16.0399556 C19.7475203,15.7735849 19.7685663,15.5279378 19.8106402,15.3029967 C19.8527322,15.0780555 19.9158521,14.8501665 20,14.6193119 C20.0841659,14.3884573 20.1665284,14.2031698 20.2470694,14.063485 C20.3288368,13.9249723 20.4358341,13.7669256 20.5680794,13.5893452 C20.7003427,13.4117647 20.8716682,13.2282708 21.0820559,13.0388457 C21.2924617,12.8494206 21.5329125,12.6807192 21.8034265,12.5327414 C22.0739405,12.3847636 22.3234265,12.2722841 22.5518485,12.1953385 C22.7802885,12.1183929 22.9726601,12.0680666 23.128945,12.0443951 C23.285248,12.0207236 23.3633904,12.0071032 23.3633904,12.0035516 Z" id="Path" fill="#FFFFFF" fill-rule="nonzero"></path>
            </g>
        </g>
    </g>
</svg>

<svg width="40" height="40" xmlns="http://www.w3.org/2000/svg">
    <g fill="none" fill-rule="evenodd">
        <circle fill="#32C5FF" cx="20" cy="20" r="20"/>
        <path d="M23.363 12.004V12h.938l.343.067c.228.044.436.102.622.173.186.07.367.154.541.248.174.095.332.192.474.29.141.097.267.2.38.309.11.11.282.138.517.085.234-.053.487-.127.757-.222s.538-.201.803-.32c.264-.118.425-.193.483-.225l.09-.053.004-.006.018-.009.018-.008.018-.01.018-.008.003-.006.006-.003.005-.004.004-.005.018-.005.018-.004-.004.027-.005.026-.01.027-.008.027-.01.017-.008.018-.01.027a.61.61 0 00-.017.07c-.006.03-.063.149-.172.356a4.433 4.433 0 01-.405.63 3.116 3.116 0 01-.437.483c-.13.11-.216.187-.258.231a.772.772 0 01-.153.125l-.09.058-.018.01-.018.008-.004.005-.005.004-.006.003-.003.006-.018.009-.018.008-.004.006-.005.003-.006.004-.003.005-.004.006-.005.003-.006.004-.003.005h.09l.505-.107c.336-.07.658-.156.965-.257l.487-.16.054-.018.027-.008.018-.01.018-.008.018-.01.018-.008.036-.005L30 13.9v.036l-.009.003-.009.006-.004.005-.005.003-.005.004-.004.005-.004.006-.005.003-.005.004-.004.005-.004.005-.005.004-.01.018-.008.017-.006.004-.229.302c-.15.199-.231.3-.243.302-.012.003-.029.021-.05.053-.021.033-.148.165-.383.396-.234.23-.464.436-.689.616-.226.181-.34.404-.342.668-.004.263-.018.56-.042.891-.024.332-.069.69-.135 1.075s-.168.82-.307 1.305c-.138.485-.306.959-.505 1.42a11 11 0 01-.622 1.244 12.009 12.009 0 01-1.145 1.651 10.66 10.66 0 01-.707.76c-.286.28-.442.435-.469.462-.028.026-.145.123-.353.291-.207.17-.43.339-.668.508a7.732 7.732 0 01-.652.42c-.199.113-.438.242-.718.386-.28.146-.581.28-.906.405-.324.124-.667.24-1.028.346-.36.107-.709.19-1.046.249-.336.06-.718.11-1.145.151l-.64.062V28h-1.172v-.009l-.153-.009a8.347 8.347 0 01-.253-.018 30.552 30.552 0 01-.748-.097c-.433-.06-.773-.119-1.02-.178-.246-.059-.612-.171-1.1-.337a10.799 10.799 0 01-1.25-.503 50.248 50.248 0 01-.648-.32 4.629 4.629 0 01-.293-.163l-.162-.097-.003-.006-.006-.003-.005-.004-.004-.005-.018-.009-.018-.009-.004-.005-.005-.004-.005-.003-.004-.006-.004-.005-.005-.004H10v-.035l.018.003.018.006.081.009c.054.006.202.014.442.026a8.263 8.263 0 002.597-.293c.385-.1.738-.22 1.06-.358.321-.14.55-.244.686-.313.134-.067.34-.193.616-.376l.415-.276.004-.005.005-.004.006-.003.003-.005.004-.006.005-.003.006-.004.003-.005.018-.006.018-.003.004-.018.005-.018.006-.003.003-.005-.144-.01-.28-.017a2.749 2.749 0 01-.423-.08 4.11 4.11 0 01-.622-.213 4.823 4.823 0 01-.65-.338 3.193 3.193 0 01-.456-.324 7.85 7.85 0 01-.36-.363 3.6 3.6 0 01-.383-.485 4.334 4.334 0 01-.31-.573l-.15-.323-.009-.027-.009-.027-.005-.017-.004-.018.027.003.027.006.199.026c.132.018.34.024.622.018.282-.006.478-.018.586-.035a3.84 3.84 0 00.198-.036l.036-.009.046-.009.045-.009.003-.005.006-.003.005-.004.004-.005-.036-.01-.036-.008-.037-.009-.036-.009-.036-.009a3.354 3.354 0 01-.126-.035 6.98 6.98 0 01-.487-.196 3.743 3.743 0 01-.631-.328 4.349 4.349 0 01-.447-.35 5.056 5.056 0 01-.464-.494 3.545 3.545 0 01-.45-.701 4.226 4.226 0 01-.298-.764 4.065 4.065 0 01-.13-.737l-.033-.372.019.003.018.005.018.01.018.008.018.01.018.008.28.124c.186.083.417.154.694.213.276.06.441.092.495.098l.082.009h.162l-.004-.005-.005-.004-.005-.004-.004-.005-.004-.005-.005-.004-.006-.003-.003-.006-.018-.009-.018-.008-.004-.006-.005-.003-.006-.004-.003-.005-.018-.009-.018-.009-.004-.005-.155-.114a2.35 2.35 0 01-.31-.29 10.493 10.493 0 01-.325-.372 2.878 2.878 0 01-.288-.418 5.024 5.024 0 01-.267-.564 3.963 3.963 0 01-.292-1.371 4.24 4.24 0 01.018-.577c.018-.16.054-.34.108-.542.054-.201.132-.414.234-.64l.154-.337.009-.026.009-.027.005-.003.004-.006.003-.005.006-.004.005.004.004.005.003.006.006.003.005.004.004.005.003.005.006.004.009.018.009.017.005.004.004.005.243.267c.163.177.355.375.577.594.223.22.346.333.37.341.024.01.054.037.09.082.036.044.156.149.36.314.205.166.473.359.803.578.331.219.698.435 1.1.648.403.213.836.405 1.299.577.463.172.787.284.974.337.186.054.505.122.956.205.45.082.79.136 1.019.16.228.023.384.037.468.04l.127.004-.004-.027-.005-.027-.036-.222a4.11 4.11 0 01-.036-.621c0-.266.02-.512.063-.737.042-.225.105-.453.189-.684.084-.23.167-.416.247-.556.082-.138.189-.296.321-.474.132-.177.304-.36.514-.55.21-.19.45-.358.721-.506.27-.148.52-.26.749-.338.228-.077.42-.127.577-.15.156-.024.234-.038.234-.041z" fill="#FFF" fill-rule="nonzero"/>
    </g>
</svg>
